Gruvbox-Plus-Dark/apps/16/bbc.svg

<svg width="16" height="16" version="1.1" viewBox="0 0 16 16" xmlns="http://www.w3.org/2000/svg">
  <defs>
    <style type="text/css" id="current-color-scheme">.ColorScheme-Text { color:#ebdbb2; } .ColorScheme-Highlight { color:#458588; }</style>
  </defs>
  <path class="ColorScheme-Text" fill="currentColor" d="m8.669 8.667c0 0.495-0.617 0.466-0.617 0.466h-0.616v-0.895h0.616c0.635-4e-3 0.617 0.429 0.617 0.429zm-1.233-1.795h0.47c0.488 0.026 0.469 0.389 0.469 0.389 0 0.452-0.539 0.459-0.539 0.459h-0.4v-0.848zm-4.347 1.795c0 0.495-0.617 0.466-0.617 0.466h-0.617v-0.895h0.617c0.635-4e-3 0.617 0.429 0.617 0.429zm-1.234-1.795h0.47c0.488 0.026 0.47 0.389 0.47 0.389 0 0.452-0.54 0.459-0.54 0.459h-0.4v-0.848zm6.7 1.024s0.422-0.18 0.419-0.657c0 0 0.064-0.781-0.972-0.877h-1.15v3.278h1.318s1.101 3e-3 1.101-0.925c0 0 0.026-0.632-0.716-0.819zm-5.58 0s0.422-0.18 0.418-0.657c0 0 0.064-0.781-0.972-0.877h-1.149v3.278h1.317s1.101 3e-3 1.101-0.925c0 0 0.026-0.632-0.715-0.819zm2.605-2.176h4.84v4.56h-4.84v-4.56zm-5.58 0h4.839v4.56h-4.839v-4.56zm15.01 0.877v0.606s-0.591-0.364-1.244-0.371c0 0-1.219-0.024-1.274 1.168 0 0-0.044 1.096 1.259 1.159 0 0 0.547 0.066 1.288-0.408v0.628s-0.994 0.591-2.147 0.136c0 0-0.969-0.354-1.006-1.515 0 0-0.04-1.194 1.252-1.59 0 0 0.345-0.132 0.965-0.074 0 0 0.371 0.037 0.907 0.261zm-3.852 3.683h4.839v-4.56h-4.839v4.56z"/>
</svg>

<svg xmlns="http://www.w3.org/2000/svg" style="isolation:isolate" width="16" height="16" viewBox="0 0 16 16">
 <defs>
  <style id="current-color-scheme" type="text/css">
   .ColorScheme-Text { color:#ebdbb2; } .ColorScheme-Highlight { color:#458588; }
  </style>
  <linearGradient id="arrongin" x1="0%" x2="0%" y1="0%" y2="100%">
   <stop offset="0%" style="stop-color:#d79921; stop-opacity:1"/>
   <stop offset="100%" style="stop-color:#b57614; stop-opacity:1"/>
  </linearGradient>
  <linearGradient id="aurora" x1="0%" x2="0%" y1="0%" y2="100%">
   <stop offset="0%" style="stop-color:#83a598; stop-opacity:1"/>
   <stop offset="100%" style="stop-color:#b16286; stop-opacity:1"/>
  </linearGradient>
  <linearGradient id="fitdance" x1="0%" x2="0%" y1="0%" y2="100%">
   <stop offset="0%" style="stop-color:#8ec07c; stop-opacity:1"/>
   <stop offset="100%" style="stop-color:#458588; stop-opacity:1"/>
  </linearGradient>
  <linearGradient id="oomox" x1="0%" x2="0%" y1="0%" y2="100%">
   <stop offset="0%" style="stop-color:#458588; stop-opacity:1"/>
   <stop offset="100%" style="stop-color:#928374; stop-opacity:1"/>
  </linearGradient>
  <linearGradient id="rainblue" x1="0%" x2="0%" y1="0%" y2="100%">
   <stop offset="0%" style="stop-color:#b8bb26; stop-opacity:1"/>
   <stop offset="100%" style="stop-color:#076678; stop-opacity:1"/>
  </linearGradient>
  <linearGradient id="sunrise" x1="0%" x2="0%" y1="0%" y2="100%">
   <stop offset="0%" style="stop-color: #fe8019; stop-opacity:1"/>
   <stop offset="100%" style="stop-color: #fabd2f; stop-opacity:1"/>
  </linearGradient>
  <linearGradient id="telinkrin" x1="0%" x2="0%" y1="0%" y2="100%">
   <stop offset="0%" style="stop-color: #83a598; stop-opacity:1"/>
   <stop offset="100%" style="stop-color: #83a598; stop-opacity:1"/>
  </linearGradient>
  <linearGradient id="60spsycho" x1="0%" x2="0%" y1="0%" y2="100%">
   <stop offset="0%" style="stop-color: #fb4934; stop-opacity:1"/>
   <stop offset="25%" style="stop-color: #fabd2f; stop-opacity:1"/>
   <stop offset="50%" style="stop-color: #fe8019; stop-opacity:1"/>
   <stop offset="100%" style="stop-color: #689d6a; stop-opacity:1"/>
  </linearGradient>
  <linearGradient id="90ssummer" x1="0%" x2="0%" y1="0%" y2="100%">
   <stop offset="0%" style="stop-color: #b16286; stop-opacity:1"/>
   <stop offset="20%" style="stop-color: #8ec07c; stop-opacity:1"/>
   <stop offset="50%" style="stop-color: #fabd2f; stop-opacity:1"/>
   <stop offset="100%" style="stop-color: #458588; stop-opacity:1"/>
  </linearGradient>
  <linearGradient id="cyberneon" x1="0%" x2="0%" y1="0%" y2="100%">
    <stop offset="0" style="stop-color:#83a598; stop-opacity:1"/>
    <stop offset="1" style="stop-color:#b16286; stop-opacity:1"/>
  </linearGradient>
 </defs>
 <path style="fill:currentColor" class="ColorScheme-Text" fill-rule="evenodd" d="M 8.669 8.667 C 8.669 9.162 8.052 9.133 8.052 9.133 L 7.436 9.133 L 7.436 8.238 L 8.052 8.238 C 8.687 8.234 8.669 8.667 8.669 8.667 L 8.669 8.667 L 8.669 8.667 Z M 7.436 6.872 L 7.906 6.872 C 8.394 6.898 8.375 7.261 8.375 7.261 C 8.375 7.713 7.836 7.72 7.836 7.72 L 7.436 7.72 L 7.436 6.872 L 7.436 6.872 L 7.436 6.872 Z M 3.089 8.667 C 3.089 9.162 2.472 9.133 2.472 9.133 L 1.855 9.133 L 1.855 8.238 L 2.472 8.238 C 3.107 8.234 3.089 8.667 3.089 8.667 L 3.089 8.667 L 3.089 8.667 Z M 1.855 6.872 L 2.325 6.872 C 2.813 6.898 2.795 7.261 2.795 7.261 C 2.795 7.713 2.255 7.72 2.255 7.72 L 1.855 7.72 L 1.855 6.872 L 1.855 6.872 L 1.855 6.872 Z M 8.555 7.896 C 8.555 7.896 8.977 7.716 8.974 7.239 C 8.974 7.239 9.038 6.458 8.002 6.362 L 6.852 6.362 L 6.852 9.64 L 8.17 9.64 C 8.17 9.64 9.271 9.643 9.271 8.715 C 9.271 8.715 9.297 8.083 8.555 7.896 L 8.555 7.896 L 8.555 7.896 Z M 2.975 7.896 C 2.975 7.896 3.397 7.716 3.393 7.239 C 3.393 7.239 3.457 6.458 2.421 6.362 L 1.272 6.362 L 1.272 9.64 L 2.589 9.64 C 2.589 9.64 3.69 9.643 3.69 8.715 C 3.69 8.715 3.716 8.083 2.975 7.896 L 2.975 7.896 L 2.975 7.896 Z M 5.58 5.72 L 10.42 5.72 L 10.42 10.28 L 5.58 10.28 L 5.58 5.72 L 5.58 5.72 L 5.58 5.72 Z M 0 5.72 L 4.839 5.72 L 4.839 10.28 L 0 10.28 L 0 5.72 L 0 5.72 L 0 5.72 Z M 15.013 6.597 L 15.013 7.203 C 15.013 7.203 14.422 6.839 13.769 6.832 C 13.769 6.832 12.55 6.808 12.495 8 C 12.495 8 12.451 9.096 13.754 9.159 C 13.754 9.159 14.301 9.225 15.042 8.751 L 15.042 9.379 C 15.042 9.379 14.048 9.97 12.895 9.515 C 12.895 9.515 11.926 9.161 11.889 8 C 11.889 8 11.849 6.806 13.141 6.41 C 13.141 6.41 13.486 6.278 14.106 6.336 C 14.106 6.336 14.477 6.373 15.013 6.597 L 15.013 6.597 Z M 11.161 10.28 L 16 10.28 L 16 5.72 L 11.161 5.72 L 11.161 10.28 L 11.161 10.28 Z"/>
</svg>
